X: 1
T: Morag's Waltz
R: waltz
C: Tom Anderson
O: Shetland
D: Buddy MacMaster "Glencoe Hall" BM-91
F: http://www4.ncsu.edu/unity/users/p/pfackler/www/Music/CBTunes.abc
Z: chords from Terry Traub's arrangement
L: 1/8
M: 3/4
K: D
AG |\
"D"F4D2 | "Em"G4E2 | "A"A2B2c2 |  "D"d4F2 | "G"G4B2   | "D"A4F2 | "Em"A2G2F2 | "A7"E4AG |
"D"F4D2 | "Em"G4E2 | "A"A2B2c2 | "Bm"d4F2 | "G"G2B2e2 | "A7"A2c2e2 | "D(G)"d6- | "D"d4 :|
|: cd |\
"A"e4c2 | A4ag | "D"f4e2 | d4f2 | "G"g4B2 | "E7"e4d2 | "A"c2e2c2 | "A7"A4G2 |
"D"F2A2d2 | f2d2A2 | "G"G2B2e2 | "A"c4A2 | "G"BG3ed | "A7"cA3fe | "D(G)"d6- | "D"d4 :|
